X: 34697
T: Road To Errogie, The
R: reel
M: 4/4
K: Bmixolydian
d3(d|:cB)cd|fB (3BBB (cd)fb|g3 (g fd)B(d|cB)cd cBGB|
FB (3BBB (cB)cd|fB (3BBB (cd)fb|g3 (g fd)Bd|
[1 cBcd B2 (BG)|FB (3BBB:|2 cBcd Bcdf]
b3 b- b2c'b|((d'2d')c') ((b2b)f)|(g2f) (b2f)(g2|g)fbf gfdf|
b3 b- b2c'b|((d'2d')c') ((b2b)f)|g3(g fd)Bd|cBcd Bcdf
b3 b- b2c'b|((d'2d')c') ((b2b)f)|(g2f) (b2f)(g2|g)fbf gfdB|
FB (3BBB (cB)cd|fB (3BBB (cd)fb|g3 (g fd)Bd cBcd|B4||

